resources/svg/regular/user-check.svg

<svg xmlns="http://www.w3.org/2000/svg" fill="currentColor" stroke="none" viewBox="0 0 24 24"><path fill="none" d="M6,8c0,1.178,0.822,2,2,2s2-0.822,2-2S9.178,6,8,6S6,6.822,6,8z"/><path d="M20.294 8.292L15.994 12.584 14.702 11.292 13.288 12.706 15.994 15.41 21.706 9.708zM4 8c0 2.28 1.72 4 4 4s4-1.72 4-4-1.72-4-4-4S4 5.72 4 8zM10 8c0 1.178-.822 2-2 2S6 9.178 6 8s.822-2 2-2S10 6.822 10 8zM4 18c0-1.654 1.346-3 3-3h2c1.654 0 3 1.346 3 3v1h2v-1c0-2.757-2.243-5-5-5H7c-2.757 0-5 2.243-5 5v1h2V18z"/></svg>

<svg xmlns="http://www.w3.org/2000/svg" fill="currentColor" stroke="none" viewBox="0 0 24 24"><path d="M20.29 8.29 16 12.58l-1.3-1.29-1.41 1.42 2.7 2.7 5.72-5.7zM4 8a3.91 3.91 0 0 0 4 4 3.91 3.91 0 0 0 4-4 3.91 3.91 0 0 0-4-4 3.91 3.91 0 0 0-4 4zm6 0a1.91 1.91 0 0 1-2 2 1.91 1.91 0 0 1-2-2 1.91 1.91 0 0 1 2-2 1.91 1.91 0 0 1 2 2zM4 18a3 3 0 0 1 3-3h2a3 3 0 0 1 3 3v1h2v-1a5 5 0 0 0-5-5H7a5 5 0 0 0-5 5v1h2z"/></svg>
